X:2379
T:Tran Dansen
A:Västergötland
L:1/8
M:3/4
O:Sweden
Z:Carol Turner
K:C
A>^c e2 d>^c|A<^c e2 g2|f>e d2 e>d|^c2 A3 (^G|A)>^c e2 d>^c|A<^c e2 g2|f
>e d2 e>d|^c2 A3 (e||e2) f2 a2|g>b a3 (g|g2) f>d fe|^c<e d3(e|e2) f2 a2|
g>b a3 (g|g2) f>d fe|^c<e d4||

